X:538
T: "Vor der Hochzeit"
N: Z1218
O: Europa, Mitteleuropa, Schweiz
R: Liebes - Lied, Hochzeits - Lied
M: 2/4
L: 1/16
K: G
D2 | G2A2B2c2 | d4B2
d2 | cAc2BGB2 | A4z2
B2 | c2A2B2G2 | FGAGD2
d2 | c2A2B2G2 | F2G2A2
g2 | d3cB3A | G4z2

@@@ Tune index: 10296
